X: 7247
T: Clap Your Hands
R: polka
M: 2/4
K: Gmajor
d/c/|BG G>G|DG G>G|FG AB|cA d>c|BG G>G|DG G>G|Ad cA|G3:|
d|de =f>e|de =f>e|dB AG|FA A>A|BB/B/ cc/c/|dg ec|BG AF|G3:|

